src/assets/signals/buttons/addSignal.svg

<svg width="18" height="14" viewBox="0 0 18 14" fill="none" xmlns="http://www.w3.org/2000/svg">
<path fill-rule="evenodd" clip-rule="evenodd" d="M9 5.25005C8.0335 5.25005 7.25 6.03355 7.25 7.00005C7.25 7.96654 8.0335 8.75005 9 8.75005C9.9665 8.75005 10.75 7.96654 10.75 7.00005C10.75 6.03355 9.9665 5.25005 9 5.25005ZM5.75 7.00005C5.75 5.20512 7.20507 3.75005 9 3.75005C10.7949 3.75005 12.25 5.20512 12.25 7.00005C12.25 8.79497 10.7949 10.25 9 10.25C7.20507 10.25 5.75 8.79497 5.75 7.00005ZM5.09864 0.54957C5.34743 0.880744 5.28065 1.3509 4.94947 1.59969C3.30901 2.83206 2.25 4.79278 2.25 7.00004C2.25 9.20731 3.30901 11.168 4.94947 12.4004C5.28065 12.6492 5.34743 13.1193 5.09864 13.4505C4.84985 13.7817 4.3797 13.8485 4.04853 13.5997C2.04699 12.0961 0.75 9.69878 0.75 7.00004C0.75 4.30131 2.04699 1.90402 4.04853 0.400399C4.3797 0.15161 4.84985 0.218395 5.09864 0.54957ZM12.9014 0.54957C13.1502 0.218395 13.6203 0.15161 13.9515 0.400399C15.953 1.90402 17.25 4.30131 17.25 7.00004C17.25 9.69878 15.953 12.0961 13.9515 13.5997C13.6203 13.8485 13.1502 13.7817 12.9014 13.4505C12.6526 13.1193 12.7194 12.6492 13.0505 12.4004C14.691 11.168 15.75 9.20731 15.75 7.00004C15.75 4.79278 14.691 2.83206 13.0505 1.59969C12.7194 1.3509 12.6526 0.880744 12.9014 0.54957Z" fill="#14C393"/>
</svg>

<svg width="18" height="14" fill="none" xmlns="http://www.w3.org/2000/svg"><path fill-rule="evenodd" clip-rule="evenodd" d="M9 5.25a1.75 1.75 0 1 0 0 3.5 1.75 1.75 0 0 0 0-3.5zM5.75 7a3.25 3.25 0 1 1 6.5 0 3.25 3.25 0 0 1-6.5 0zM5.099.55a.75.75 0 0 1-.15 1.05A6.74 6.74 0 0 0 2.25 7a6.74 6.74 0 0 0 2.7 5.4.75.75 0 1 1-.901 1.2A8.24 8.24 0 0 1 .75 7 8.24 8.24 0 0 1 4.049.4a.75.75 0 0 1 1.05.15zm7.802 0a.75.75 0 0 1 1.05-.15A8.24 8.24 0 0 1 17.25 7a8.24 8.24 0 0 1-3.299 6.6.75.75 0 1 1-.9-1.2A6.74 6.74 0 0 0 15.75 7a6.74 6.74 0 0 0-2.7-5.4.75.75 0 0 1-.149-1.05z" fill="#14C393"/></svg>
